TuxGuitar/src-skins/Symbolic/TuxGuitar/document-revert-symbolic_import.svg

<?xml version="1.0" encoding="UTF-8" standalone="no"?>
<svg
   height="16px"
   viewBox="0 0 16 16"
   width="16px"
   version="1.1"
   id="svg4"
   sodipodi:docname="document-revert-symbolic_import.svg"
   inkscape:version="1.2.2 (b0a8486541, 2022-12-01)"
   xmlns:inkscape="http://www.inkscape.org/namespaces/inkscape"
   xmlns:sodipodi="http://sodipodi.sourceforge.net/DTD/sodipodi-0.dtd"
   xmlns="http://www.w3.org/2000/svg"
   xmlns:svg="http://www.w3.org/2000/svg">
  <defs
     id="defs8" />
  <sodipodi:namedview
     id="namedview6"
     pagecolor="#ffffff"
     bordercolor="#666666"
     borderopacity="1.0"
     inkscape:showpageshadow="2"
     inkscape:pageopacity="0.0"
     inkscape:pagecheckerboard="0"
     inkscape:deskcolor="#d1d1d1"
     showgrid="false"
     inkscape:zoom="52.25"
     inkscape:cx="7.6842105"
     inkscape:cy="8"
     inkscape:window-width="1920"
     inkscape:window-height="1021"
     inkscape:window-x="0"
     inkscape:window-y="0"
     inkscape:window-maximized="1"
     inkscape:current-layer="svg4" />
  <path
     id="path293"
     fill="#232629"
     d="M 4,0 C 2.3554706,0 1,1.3554706 1,3 v 10 c 0,1.644529 1.3554706,3 3,3 h 1.2296144 c 0.5507804,0 1,-0.44922 1,-1 0,-0.55078 -0.4492196,-1 -1,-1 H 4 C 3.4296886,14 3,13.570311 3,13 V 3 C 3,2.4296886 3.4296886,2 4,2 H 9.5859375 L 13,5.4140625 V 6 9 c 0,1.117187 -0.882813,2 -2,2 H 9.1894124 L 10.482381,9.7070312 c 0.390625,-0.3906247 0.390625,-1.0234378 0,-1.4140624 -0.390625,-0.3906247 -1.0234377,-0.3906247 -1.4140623,0 l -3,3.0000002 c -0.3906247,0.390624 -0.3906247,1.023438 0,1.414062 l 3,3 C 9.2558186,15.894531 9.5097252,16 9.7753499,16 c 0.2656251,0 0.5195311,-0.105469 0.7070311,-0.292969 0.390625,-0.390624 0.390624,-1.023438 0,-1.414062 L 9.1894124,13 H 11 c 2.199217,0 4,-1.800783 4,-4 V 6 5 C 15,4.7343753 14.894531,4.4804686 14.707031,4.2929688 l -4,-4.00000005 C 10.519531,0.10546894 10.265625,0 10,0 Z m 5,5" />
</svg>

<?xml version="1.0" encoding="UTF-8"?>
<svg id="svg4" width="16px" height="16px" version="1.1" viewBox="0 0 16 16" xmlns="http://www.w3.org/2000/svg">
 <path id="path293" d="m4 0c-1.6445 0-3 1.3555-3 3v10c0 1.6445 1.3555 3 3 3h1.2296c0.55078 0 1-0.44922 1-1s-0.44922-1-1-1h-1.2296c-0.57031 0-1-0.42969-1-1v-10c0-0.57031 0.42969-1 1-1h5.5859l3.4141 3.4141v3.5859c0 1.1172-0.88281 2-2 2h-1.8106l1.293-1.293c0.39062-0.39062 0.39062-1.0234 0-1.4141-0.39062-0.39062-1.0234-0.39062-1.4141 0l-3 3c-0.39062 0.39062-0.39062 1.0234 0 1.4141l3 3c0.1875 0.1875 0.44141 0.29297 0.70703 0.29297 0.26563 0 0.51953-0.10547 0.70703-0.29297 0.39062-0.39062 0.39062-1.0234 0-1.4141l-1.293-1.293h1.8106c2.1992 0 4-1.8008 4-4v-4c0-0.26562-0.10547-0.51953-0.29297-0.70703l-4-4c-0.1875-0.1875-0.44141-0.29297-0.70703-0.29297z" fill="#232629"/>
</svg>
